public/library/token-pocket-text-light.svg

<svg width="212" height="29" viewBox="0 0 212 29" fill="none" xmlns="http://www.w3.org/2000/svg">
<path d="M172.623 8.79132C172.606 8.77436 172.581 8.74893 172.564 8.73198C171.174 7.24852 169.232 6.33301 167.079 6.33301C162.858 6.33301 159.433 9.87636 159.433 14.2505C159.433 18.6246 162.858 22.1679 167.079 22.1679C169.283 22.1679 171.275 21.2015 172.674 19.6503C172.674 19.6503 172.691 19.6418 172.683 19.6418C172.301 19.1501 170.453 17.37 170.453 17.37H170.385C169.563 18.3024 168.393 18.8958 167.079 18.8958C164.604 18.8958 162.595 16.819 162.595 14.2505C162.595 11.6904 164.604 9.6051 167.079 9.6051C168.393 9.6051 169.572 10.207 170.385 11.1394" fill="#202020"/>
<path d="M150.922 6.33301C146.607 6.33301 143.106 9.91027 143.106 14.3183C143.106 18.7263 146.607 22.3035 150.922 22.3035C155.237 22.3035 158.738 18.7263 158.738 14.3183C158.746 9.9018 155.245 6.33301 150.922 6.33301ZM150.922 18.9975C148.388 18.9975 146.336 16.9037 146.336 14.3183C146.336 11.7328 148.388 9.63901 150.922 9.63901C153.457 9.63901 155.508 11.7328 155.508 14.3183C155.508 16.9037 153.457 18.9975 150.922 18.9975Z" fill="#202020"/>
<path d="M211.515 6.33301V9.89332H207.675V22.1594H203.996V9.89332H200.131V6.33301H211.515V6.33301Z" fill="#202020"/>
<path d="M177.65 6.33301V13.7673L182.507 6.33301H185.983L181.414 13.2756L186.915 22.1594H182.914L178.972 16.5816L177.642 18.5313V22.1594H174.073V6.33301H177.65Z" fill="#202020"/>
<path d="M198.689 9.35079H191.306V12.5975H197.113V15.5813H191.306V19.0399H198.689V22.1679H187.61V6.33301H198.689V9.35079Z" fill="#202020"/>
<path d="M136.927 6.33301H133.375H129.738V21.7356V22.1679H133.375V21.7356V18.4211H136.927C139.724 18.4211 141.996 15.717 141.996 12.3771C141.996 9.03715 139.724 6.33301 136.927 6.33301ZM135.46 15.1405H133.375V9.44404H135.46C137.105 9.44404 138.868 10.0798 138.868 12.2923C138.868 14.3946 137.113 15.1405 135.46 15.1405Z" fill="#202020"/>
<path d="M73.9515 6.33301C69.6367 6.33301 66.1357 9.91027 66.1357 14.3183C66.1357 18.7263 69.6367 22.3035 73.9515 22.3035C78.2662 22.3035 81.7672 18.7263 81.7672 14.3183C81.7672 9.9018 78.2662 6.33301 73.9515 6.33301ZM73.9515 18.9975C71.4169 18.9975 69.3655 16.9037 69.3655 14.3183C69.3655 11.7328 71.4169 9.63901 73.9515 9.63901C76.4861 9.63901 78.5375 11.7328 78.5375 14.3183C78.5375 16.9037 76.4861 18.9975 73.9515 18.9975Z" fill="#202020"/>
<path d="M65.7968 6.40088V9.96119H61.9568V22.2273H58.2693V9.96119H54.4038V6.40088H65.7968Z" fill="#202020"/>
<path d="M108.808 9.41866H101.425V12.6653H107.232V15.6492H101.425V19.1078H108.808V22.2358H97.729V6.40088H108.808V9.41866Z" fill="#202020"/>
<path d="M122.626 6.40088V22.2273H119.523L113.454 11.5379C113.462 11.8092 113.471 11.9872 113.479 12.0719C113.513 12.3432 113.522 12.5721 113.522 12.7586V22.2358H110.69V6.40088H114.607L119.879 15.734C119.837 15.2677 119.812 14.9202 119.812 14.6828V6.40088H122.626V6.40088Z" fill="#202020"/>
<path d="M86.514 6.40092L86.531 12.8519L92.4648 6.38396L95.8047 6.37549L90.2608 13.3181L96.3897 22.2104L92.5496 22.2189L87.9382 15.7849L86.5479 17.1242L86.5564 22.2358L83.1317 22.2443L83.0894 6.4094L86.514 6.40092Z" fill="#202020"/>
<g clip-path="url(#clip0_2885_40952)">
<path d="M17.4401 0.603027H17.1523H1.80683C1.07573 0.603027 0.484619 1.19414 0.484619 1.92524V7.29188C0.484619 8.02299 1.07573 8.6141 1.80683 8.6141H5.40793H6.83903V10.2008V27.1873C6.83903 27.9184 7.43014 28.5095 8.16124 28.5095H13.7923C14.5234 28.5095 15.1145 27.9184 15.1145 27.1873V10.2008V10.053V8.6141H16.5456H17.129H17.4167C19.6256 8.6141 21.4223 6.81744 21.4223 4.60856C21.4456 2.39968 19.649 0.603027 17.4401 0.603027Z" fill="#2980FE"/>
<path fill-rule="evenodd" clip-rule="evenodd" d="M32.6539 0.603027C26.5406 0.603027 21.5784 5.56522 21.5784 11.6785C21.5784 11.6931 21.5784 11.7077 21.5785 11.7222V27.1484C21.5785 27.8795 22.1696 28.4706 22.9007 28.4706H28.8273C29.5584 28.4706 30.1495 27.8795 30.1495 27.1484V22.4722L30.1564 22.4738L30.1832 22.478C30.4788 22.548 30.7552 22.5983 31.0663 22.645C31.5019 22.7072 31.953 22.7461 32.4041 22.7539L32.6538 22.7538C32.8716 22.7538 33.0816 22.7462 33.2916 22.7385C39.1094 22.404 43.7294 17.5818 43.7294 11.6785C43.7371 5.56522 38.7749 0.603027 32.6539 0.603027ZM33.2916 14.0896C33.0894 14.1441 32.8716 14.175 32.6538 14.175C32.5939 14.175 32.5413 14.1742 32.4819 14.1673C31.2048 14.0832 30.1908 13.0365 30.1572 11.7446V11.6785C30.1572 10.3019 31.2772 9.18188 32.6539 9.18188C34.0305 9.18188 35.1505 10.3019 35.1505 11.6785C35.1505 12.8374 34.365 13.8096 33.2916 14.0896Z" fill="#2980FE"/>
</g>
<defs>
<clipPath id="clip0_2885_40952">
<rect width="43.2353" height="28" fill="white" transform="translate(0.484619 0.5)"/>
</clipPath>
</defs>
</svg>

<svg xmlns="http://www.w3.org/2000/svg" width="212" height="29" fill="none" viewBox="0 0 212 29"><path fill="#202020" d="m172.623 8.791-.059-.059c-1.39-1.483-3.332-2.399-5.485-2.399-4.221 0-7.646 3.543-7.646 7.918 0 4.374 3.425 7.917 7.646 7.917 2.204 0 4.196-.966 5.595-2.518 0 0 .017-.008.009-.008-.382-.492-2.23-2.272-2.23-2.272h-.068c-.822.932-1.992 1.526-3.306 1.526-2.475 0-4.484-2.077-4.484-4.645 0-2.56 2.009-4.646 4.484-4.646 1.314 0 2.493.602 3.306 1.534M150.922 6.333c-4.315 0-7.816 3.577-7.816 7.985s3.501 7.986 7.816 7.986 7.816-3.578 7.816-7.986c.008-4.416-3.493-7.985-7.816-7.985m0 12.664c-2.534 0-4.586-2.093-4.586-4.679 0-2.585 2.052-4.679 4.586-4.679s4.586 2.094 4.586 4.68-2.051 4.678-4.586 4.678M211.515 6.333v3.56h-3.84V22.16h-3.679V9.893h-3.865v-3.56zM177.65 6.333v7.434l4.857-7.434h3.476l-4.569 6.943 5.501 8.883h-4.001l-3.942-5.577-1.33 1.95v3.627h-3.569V6.333zM198.689 9.35h-7.383v3.248h5.807v2.983h-5.807v3.459h7.383v3.128H187.61V6.333h11.079zM136.927 6.333h-7.189v15.835h3.637V18.42h3.552c2.797 0 5.069-2.704 5.069-6.044s-2.272-6.044-5.069-6.044m-1.467 8.808h-2.085V9.444h2.085c1.645 0 3.408.636 3.408 2.848 0 2.103-1.755 2.848-3.408 2.848M73.952 6.333c-4.315 0-7.816 3.577-7.816 7.985s3.5 7.986 7.816 7.986c4.314 0 7.815-3.578 7.815-7.986 0-4.416-3.5-7.985-7.815-7.985m0 12.664c-2.535 0-4.587-2.093-4.587-4.679 0-2.585 2.052-4.679 4.587-4.679s4.585 2.094 4.585 4.68-2.05 4.678-4.586 4.678M65.797 6.4v3.561h-3.84v12.266h-3.688V9.961h-3.865v-3.56zM108.808 9.419h-7.383v3.246h5.807v2.984h-5.807v3.459h7.383v3.128H97.729V6.4h11.079zM122.626 6.4v15.827h-3.103l-6.069-10.69q.012.408.025.535c.034.271.043.5.043.687v9.477h-2.832V6.4h3.917l5.272 9.333a13 13 0 0 1-.067-1.051V6.4zM86.514 6.4l.017 6.452 5.934-6.468 3.34-.009-5.544 6.943 6.129 8.892-3.84.009-4.612-6.434-1.39 1.34.008 5.11-3.424.01-.043-15.836z"/><g fill="#2980fe" clip-path="url(#a)"><path d="M17.44.603H1.807c-.731 0-1.322.591-1.322 1.322v5.367c0 .731.59 1.322 1.322 1.322h5.032v18.573c0 .731.591 1.322 1.322 1.322h5.631c.731 0 1.322-.59 1.322-1.322V8.614h2.303a4.01 4.01 0 0 0 4.005-4.005C21.446 2.399 19.65.603 17.44.603"/><path fill-rule="evenodd" d="M32.654.603c-6.113 0-11.076 4.962-11.076 11.075v15.47c0 .732.592 1.323 1.323 1.323h5.926c.731 0 1.322-.591 1.322-1.323v-4.676l.007.002.027.004a10.5 10.5 0 0 0 2.221.276h.25c.218 0 .428-.008.638-.016 5.817-.334 10.437-5.156 10.437-11.06C43.737 5.565 38.775.604 32.654.604m.638 13.487a2.5 2.5 0 0 1-.81.077 2.493 2.493 0 0 1-2.325-2.422v-.066a2.5 2.5 0 0 1 2.497-2.497 2.5 2.5 0 0 1 2.496 2.496 2.49 2.49 0 0 1-1.858 2.412" clip-rule="evenodd"/></g><defs><clipPath id="a"><path fill="#fff" d="M.485.5H43.72v28H.485z"/></clipPath></defs></svg>
